assets/img/braze_icons/volume-x.svg

<svg fill="none" height="24" viewBox="0 0 24 24" width="24" xmlns="http://www.w3.org/2000/svg"><g fill="#801ed7"><path clip-rule="evenodd" d="m11.6406 3.23287c-.3118-.36512-.7796-.55888-1.2583-.52121-.42862.03374-.73806.28044-.885.40346-.16471.13789-.3526.32584-.54376.51706l-3.19201 3.19202c-.09263.09263-.13903.13869-.17415.17074l-.00266.00241-.00358.00017c-.04749.00217-.11288.00241-.24388.00241h-1.76915c-.25238-.00003-.49818-.00006-.70633.01695-.2286.01867-.49833.06274-.76976.20104-.37632.19175-.68228.49771-.87403.87403-.1383.27143-.18236.54116-.20104.76975-.017007.20816-.016977.45394-.01695.70632v4.86378c-.000027.2524-.000057.4982.01695.7064.01868.2286.06274.4983.20104.7697.19175.3763.49771.6823.87403.874.27143.1383.54116.1824.76976.2011.20816.017.45396.017.70634.0169h1.76914c.131 0 .19639.0003.24388.0024l.00358.0002.00266.0024c.03512.0321.08152.0781.17415.1708l3.192 3.192c.19115.1912.37907.3792.54377.517.14694.1231.45638.3698.885.4035.4787.0377.9465-.1561 1.2583-.5212.2793-.3269.3236-.7202.3405-.9111.019-.214.0189-.4797.0189-.7501v-14.21173c0-.27038.0001-.53614-.0189-.75011-.0169-.19089-.0612-.58415-.3405-.91109z" fill-rule="evenodd"/><path d="m22.7071 8.29289c.3905.39053.3905 1.02369 0 1.41422l-2.2929 2.29289 2.2929 2.2929c.3905.3905.3905 1.0237 0 1.4142s-1.0237.3905-1.4142 0l-2.2929-2.2929-2.2929 2.2929c-.3905.3905-1.0237.3905-1.4142 0s-.3905-1.0237 0-1.4142l2.2929-2.2929-2.2929-2.29289c-.3905-.39053-.3905-1.02369 0-1.41422.3905-.39052 1.0237-.39052 1.4142 0l2.2929 2.29291 2.2929-2.29291c.3905-.39052 1.0237-.39052 1.4142 0z"/></g></svg>

<svg width="24" height="24" viewBox="0 0 24 24" fill="none" xmlns="http://www.w3.org/2000/svg">
<path fill-rule="evenodd" clip-rule="evenodd" d="M11.6406 3.23287C11.3288 2.86775 10.861 2.67399 10.3823 2.71166C9.95368 2.7454 9.64424 2.9921 9.4973 3.11512C9.33259 3.25301 9.1447 3.44096 8.95354 3.63218L5.76153 6.8242C5.6689 6.91683 5.6225 6.96289 5.58738 6.99494L5.58472 6.99735L5.58114 6.99752C5.53365 6.99969 5.46826 6.99993 5.33726 6.99993L3.56811 6.99993C3.31573 6.9999 3.06993 6.99987 2.86178 7.01688C2.63318 7.03555 2.36345 7.07962 2.09202 7.21792C1.7157 7.40967 1.40974 7.71563 1.21799 8.09195C1.07969 8.36338 1.03563 8.63311 1.01695 8.8617C0.999943 9.06986 0.999973 9.31564 1 9.56802L1 14.4318C0.999973 14.6842 0.999943 14.93 1.01695 15.1382C1.03563 15.3668 1.07969 15.6365 1.21799 15.9079C1.40974 16.2842 1.7157 16.5902 2.09202 16.7819C2.36345 16.9202 2.63318 16.9643 2.86178 16.983C3.06994 17 3.31574 17 3.56812 16.9999L5.33726 16.9999C5.46826 16.9999 5.53365 17.0002 5.58114 17.0023L5.58472 17.0025L5.58738 17.0049C5.6225 17.037 5.6689 17.083 5.76153 17.1757L8.95353 20.3677C9.14468 20.5589 9.3326 20.7469 9.4973 20.8847C9.64424 21.0078 9.95368 21.2545 10.3823 21.2882C10.861 21.3259 11.3288 21.1321 11.6406 20.767C11.9199 20.4401 11.9642 20.0468 11.9811 19.8559C12.0001 19.6419 12 19.3762 12 19.1058V4.89407C12 4.62369 12.0001 4.35793 11.9811 4.14396C11.9642 3.95307 11.9199 3.55981 11.6406 3.23287Z" fill="#801ED7"/>
<path d="M22.7071 8.29289C23.0976 8.68342 23.0976 9.31658 22.7071 9.70711L20.4142 12L22.7071 14.2929C23.0976 14.6834 23.0976 15.3166 22.7071 15.7071C22.3166 16.0976 21.6834 16.0976 21.2929 15.7071L19 13.4142L16.7071 15.7071C16.3166 16.0976 15.6834 16.0976 15.2929 15.7071C14.9024 15.3166 14.9024 14.6834 15.2929 14.2929L17.5858 12L15.2929 9.70711C14.9024 9.31658 14.9024 8.68342 15.2929 8.29289C15.6834 7.90237 16.3166 7.90237 16.7071 8.29289L19 10.5858L21.2929 8.29289C21.6834 7.90237 22.3166 7.90237 22.7071 8.29289Z" fill="#801ED7"/>
</svg>
